docs/pic/icon-font-style.svg

<?xml version="1.0" encoding="UTF-8"?>
<svg width="30px" height="30px" viewBox="0 0 30 30" version="1.1" xmlns="http://www.w3.org/2000/svg" xmlns:xlink="http://www.w3.org/1999/xlink">
    <title>icon-font-style 2</title>
    <g id="Icons" stroke="none" stroke-width="1" fill="none" fill-rule="evenodd">
        <g id="画板" transform="translate(-465, -402)" fill="#000000">
            <g id="icon-font-style" transform="translate(465, 402)">
                <path d="M25,0 C27.7614237,0 30,2.23857625 30,5 L30,25 C30,27.7614237 27.7614237,30 25,30 L5,30 C2.23857625,30 0,27.7614237 0,25 L0,5 C0,2.23857625 2.23857625,0 5,0 L25,0 Z M22.7519564,19.7063317 C22.7519564,17.4701508 21.575843,16.44 19.492847,16.44 C18.2317134,16.44 17.0839402,16.8168844 16.0211871,17.3822111 L16.1399558,17.58001 C16.100248,17.6004773 16.0606589,17.6212142 16.0211871,17.6422111 L16.8997296,19.1120603 C17.7074219,18.7100503 18.3734138,18.4839196 19.0110657,18.4839196 C19.7034224,18.4839196 20.0538693,18.7246397 20.1810081,19.1459945 L20.2296891,19.141005 C17.0839402,19.4425126 15.7519564,20.2590955 15.7519564,21.7666332 L15.7552531,21.8986526 C15.7530515,21.9407475 15.7519564,21.9834063 15.7519564,22.0266332 C15.7519564,23.2201005 16.6588389,24.2 18.1466932,24.2 C19.0394057,24.2 19.7904179,23.8356784 20.4564098,23.3080402 L20.52726,23.3080402 L20.6973005,24.0241206 L22.7519564,24.0241206 L22.7519564,19.7063317 Z M11.1850387,15.94 L9.61510116,15.94 C9.20396146,15.94 8.83471886,16.1916423 8.68436676,16.5743041 L6.0359425,23.3148218 C5.93495837,23.571837 6.06144655,23.8620528 6.31846176,23.963037 C6.37670672,23.985922 6.43873013,23.9976698 6.5013097,23.9976698 L8.26202718,23.9976698 L8.85135948,22.1481912 L11.866548,22.1481912 L12.4558803,23.9976698 L14.2988302,23.9976698 C14.5749726,23.9976698 14.7988302,23.7738121 14.7988302,23.4976698 C14.7988302,23.4350902 14.7870825,23.3730668 14.7641974,23.3148218 L12.1157731,16.5743041 C11.965421,16.1916423 11.5961784,15.94 11.1850387,15.94 Z M20.2296891,20.7577889 L20.2296891,21.641005 C19.8612681,21.9927638 19.5211871,22.2063317 19.0110657,22.2063317 C18.5443886,22.2063317 18.2236608,22.0470763 18.1588066,21.7197058 C18.2460528,21.276247 18.7969824,20.9179947 20.2296891,20.7577889 Z M10.3726591,17.389299 C10.6467672,18.2112895 10.9071698,19.1738836 11.1812779,19.9742427 L11.4005643,20.6556295 L9.31734316,20.6556295 L9.5366296,19.9742427 C9.79703224,19.1738836 10.0711403,18.2329208 10.3178375,17.389299 L10.3726591,17.389299 Z M19.8032247,6 L18.3107307,6 L14.9382683,13.6932382 L14.4480987,13.7786326 C14.5022684,13.6984551 14.5527589,13.6112796 14.6,13.5168357 L14.3571429,13.3350913 C14.0857143,13.7245436 13.9285714,13.8283976 13.7142857,13.8283976 C13.4428571,13.8283976 13.2714286,13.6596349 13.2714286,13.1663286 L13.2714286,9.67423935 C13.2714286,7.79188641 12.4571429,7 10.4285714,7 L10.1773969,7.00343747 C8.1203508,7.06056867 6.96703297,7.82583866 6.85714286,8.99918864 C6.97142857,9.42758621 7.32857143,9.66125761 7.84285714,9.66125761 L7.94387905,9.65710573 C8.44469866,9.61536511 8.87410714,9.25557809 8.91428571,8.42799189 L9.01428571,7.50628803 C9.22857143,7.4673428 9.41428571,7.45436105 9.61428571,7.45436105 L9.7517207,7.4566881 C10.7291655,7.49114675 11.0428571,7.91549519 11.0428571,9.20689655 L11.0428571,9.99878296 C10.5428571,10.1156187 10.0428571,10.2324544 9.64285714,10.3363083 C7.34285714,10.9464503 6.6,11.5825558 6.6,12.7638945 C6.6,13.8543611 7.45714286,14.5294118 8.68571429,14.5294118 L8.90651852,14.5240691 C9.90177778,14.4743115 10.42,14.0785125 11.1,13.4 C11.1105042,13.4343634 11.1217636,13.4680718 11.13379,13.5011067 C11.3672433,14.1420895 11.8891971,14.5294118 12.7857143,14.5294118 L12.9912839,14.523999 C13.4557929,14.4986132 13.8156321,14.3830526 14.1002768,14.1587739 L14.1,14.4013761 L16.7206544,14.4013761 L16.7206544,13.8388627 L16.0078499,13.6932382 L16.8080242,11.8400917 L20.0088577,11.8400917 L20.7361889,13.7044407 L19.6704546,13.8276602 L19.6704546,14.4013761 L24,14.4013761 L24,13.8276602 L23.2761435,13.7492477 L19.8032247,6 Z M11.0428571,10.3492901 L11.0428571,13.0494929 C10.5142857,13.4778905 10.1857143,13.6466531 9.8,13.6466531 C9.12857143,13.6466531 8.72857143,13.2831643 8.72857143,12.5042596 C8.72857143,11.5565923 9.25714286,10.9464503 10.2571429,10.5699797 C10.4285714,10.505071 10.7142857,10.4271805 11.0428571,10.3492901 Z M18.4727301,7.73477064 L19.8366467,11.2678899 L16.9658847,11.2678899 L18.4727301,7.73477064 Z" id="形状"></path>
            </g>
        </g>
    </g>
</svg>

<svg width="30" height="30" viewBox="0 0 30 30" xmlns="http://www.w3.org/2000/svg"><path d="M25 0a5 5 0 0 1 5 5v20a5 5 0 0 1-5 5H5a5 5 0 0 1-5-5V5a5 5 0 0 1 5-5h20zM11.185 15.94h-1.57a1 1 0 0 0-.93.634l-2.65 6.74a.5.5 0 0 0 .466.684h1.761l.59-1.85h3.015l.589 1.85h1.843a.5.5 0 0 0 .465-.683l-2.648-6.74a1 1 0 0 0-.931-.635zm8.308.5c-1.261 0-2.41.377-3.472.942l.879 1.47c.807-.402 1.473-.628 2.111-.628.822 0 1.162.34 1.219.917-3.146.302-4.478 1.118-4.478 2.626 0 1.193.907 2.173 2.395 2.173.892 0 1.643-.364 2.31-.892h.07l.17.716h2.055v-4.058c0-2.236-1.176-3.266-3.26-3.266zm.737 4.058v1.143c-.369.352-.709.565-1.219.565-.524 0-.864-.2-.864-.615 0-.503.51-.917 2.083-1.093zm-9.857-3.109c.274.822.534 1.785.808 2.585l.22.682H9.317l.22-.682c.26-.8.534-1.741.78-2.585h.056zM19.803 6h-1.492l-3.373 7.693-.49.086c.054-.08.105-.168.152-.262l-.243-.182c-.271.39-.428.493-.643.493-.271 0-.443-.168-.443-.662V9.674C13.271 7.792 12.457 7 10.43 7c-2.215 0-3.458.779-3.572 2 .114.428.472.661.986.661.543 0 1.028-.35 1.071-1.233l.1-.922c.215-.039.4-.052.6-.052 1.086 0 1.429.403 1.429 1.753v.792c-.5.117-1 .233-1.4.337-2.3.61-3.043 1.247-3.043 2.428 0 1.09.857 1.765 2.086 1.765 1.143 0 1.685-.402 2.414-1.129.214.701.743 1.13 1.686 1.13.565 0 .989-.115 1.314-.371v.242h2.62v-.562l-.712-.146.8-1.853h3.2l.728 1.864-1.066.124v.573H24v-.573l-.724-.079L19.803 6zm-8.76 4.35v2.7c-.529.428-.857.597-1.243.597-.671 0-1.071-.364-1.071-1.143 0-.947.528-1.558 1.528-1.934.172-.065.457-.143.786-.22zm7.43-2.615l1.364 3.533h-2.871l1.507-3.533z" fill="#000" fill-rule="evenodd"/></svg>
